svgs/solid/rectangles-mixed.svg

<svg xmlns="http://www.w3.org/2000/svg" viewBox="0 0 576 512"><!--! Font Awesome Pro 6.2.0 by @fontawesome - https://fontawesome.com License - https://fontawesome.com/license (Commercial License) Copyright 2022 Fonticons, Inc. --><path d="M0 80C0 53.5 21.5 32 48 32H272c26.5 0 48 21.5 48 48V208c0 26.5-21.5 48-48 48H48c-26.5 0-48-21.5-48-48V80zm384 0c0-26.5 21.5-48 48-48h96c26.5 0 48 21.5 48 48V336c0 26.5-21.5 48-48 48H432c-26.5 0-48-21.5-48-48V80zM112 304H288c26.5 0 48 21.5 48 48v80c0 26.5-21.5 48-48 48H112c-26.5 0-48-21.5-48-48V352c0-26.5 21.5-48 48-48z"/></svg>

<svg xmlns="http://www.w3.org/2000/svg" viewBox="0 0 576 512"><!--! Font Awesome Pro 6.1.2 by @fontawesome - https://fontawesome.com License - https://fontawesome.com/license (Commercial License) Copyright 2022 Fonticons, Inc. --><path d="M0 80C0 53.49 21.49 32 48 32H272C298.5 32 320 53.49 320 80V208C320 234.5 298.5 256 272 256H48C21.49 256 0 234.5 0 208V80zM384 80C384 53.49 405.5 32 432 32H528C554.5 32 576 53.49 576 80V336C576 362.5 554.5 384 528 384H432C405.5 384 384 362.5 384 336V80zM288 304C314.5 304 336 325.5 336 352V432C336 458.5 314.5 480 288 480H112C85.49 480 64 458.5 64 432V352C64 325.5 85.49 304 112 304H288z"/></svg>
